X: 1073
T: Hisarbûselik Seyir
C: Şefik Gürmeriç
O: Turkey
F: http://compmusic.upf.edu/node/140
N: hisarbuselik--seyir--sofyan--1--sefik_gurmeric
N: makam= hisarbuselik
N: form= seyir
N: usul= sofyan = 4/4
M: 4/4
L: 1/16
K: C _1/4B   
Q: 1/4=60
%%MIDI tuningsystem comma53
e8 ^d4 e4  | fef^g f2e2 e8  | z2e4f2 ^g2a2 =b2c'2  | \
w:   |   |   | 
=b2a2 a2^g2 a8  | 
w:   | 
=b4 c'4 b2a2 ^g4  | z2a4=b2 ^g2f2 e4  | \
w:   |   | 
z2=b2 a2^g2 g2f2 f2e2  | ^d2e2 f^gfe e8  | 
w:   |   | 
z2e4^f2 g6f2  | a3g f2e2 d4 z4  | z2c4d2 e2f2 g2a2  | \
w:   |   |   | 
g2f2 e2d2 dcc=B c4  | 
w:   | 
z4 =B2c2 d4 e4  | d2c2 =B2A2 A3c BA^G2  | \
w:   |   | 
z2c2 =B2c2 d2ed c2B2  | 
w:   | 
=B3A cBA^G A8  | |


